-----BEGIN PGP SIGNATURE-----

iQHPBAABCAA5FiEEKwkaKo5YEJVPuf1k6p0c1e/IFQAFAmqUFqkbFIAAAAAABAAO
bWFudTIsMi41KzEuMTIsMiwxAAoJEOqdHNXvyBUATIAMAMfeziRVHF5Y8u8q5ecx
/H6Dbq09QH5r6Hewovne8l9pDJfcKiLmhf2dD4RmwQUqTPzTfxRQLP3AqGhebSbV
dg5+oxGNzqX7nD3Z/OSg+R+nrlQkm7UWuw6bJ1pY9JZGJSgWlHYVi7ENZenRav2Y
wkZ8OND/Qh4Vq4aWy8RPVMA6A4qXAIB4nD2BrnMjPFlzC/pH68zlqTUTX8vrLTwg
6h7Aa4a/12kcpQVtH6QQh/ZFMU3etHxfbX+W+aMXG4lJiDptaO5fRvh3kHpBYLAo
RhCoZbiQSWyNy+YS9fXXp7GvJemnSKjXo8Qa9c7iePJF7B1qIOETt8hug8WWJxGb
EWqcyezD+TPiFCspa+77iMQhz486bfkWP8u0jX2LPVqgRsN8ciXJ95ncJWBMbIZ0
xBINMWbPah+tDtKmhZGjqk4d9kXb5G9y2D/OS79FUMhGwN/bslcfaQE/cm7z4V0t
/Dcun43EfRc/skGbybmbHe1fLRFEmoY0rFOu8xPMOAsO9A==
=EMMu
-----END PGP SIGNATURE-----
